X: 13534
T: Flowers Of The Forest, The
R: waltz
M: 3/4
K: Dmajor
[M:6/8]
e|:A3 A2B|A2B/>c/ d2(3e/f/g/|f3 e2d|B/d/-d2 B2A/<G/|
A3 A2B|A2B/>c/ d2(3e/f/g/|f3 e2f|1 d3 d2B:|2 d3 d3||
|:c3 c/e3/2d/>c/|B2A B/d/-d2|A/f/-f2 e2d|B/d/-d2 B2 A/<G/|
c3 c/e3/2d/>c/|B2A B/d/-d2|A/f/-f2 e2c|1 d3 d3:|2 d3 d2||
e|f/a/-a2 a3|a2g f/a3/2a/>g/|f3 e2d|B/d/-d2 A3|
f/a/-a2 a3|a2g f/a3/2a/>g/|f3 e2c|d3 d2e|
f/a/-a2 a3|a2g f/a3/2a/>g/|f3 e2d|B/d/-d2 B2A/<G/|
A3 A2B|A2B/>c/ d2(3e/f/g/|f3 e2f|d3 d2||

